svg/u1faa1.svg

<svg viewBox="0 0 128 128" xmlns="http://www.w3.org/2000/svg">
  <g>
    <linearGradient id="SVGID_1_" gradientUnits="userSpaceOnUse" x1="71.3437" x2="87.7654" y1="36.6782" y2="40.597">
      <stop offset="0.0381" stop-color="#0091EA"/>
      <stop offset="1" stop-color="#01579B"/>
    </linearGradient>
    <path d="M61.25,37.89c9.85-3.61,20.04-7.33,28.5-8.86c1.23-0.22,2.43-0.4,3.58-0.52 c2.06-2.28,4.95-3.17,6.69-5.08c-3.22-0.11-6.72,0.17-10.5,0.85c-8.99,1.62-19.44,5.44-29.54,9.14 c-16.17,5.92-31.45,11.82-40.69,7.93c-2.26-0.95-4.91-2.17-6.49-6.7C9.45,25.1,19.33,12.92,28.39,10.7 C46.3,6.3,49.17,23.68,49.17,23.68s1.19-0.49,0.81-3.94c-0.73-6.61-4.65-15.45-20.62-13.97C16.96,6.92,4.61,21.88,8.08,35.43 c1.2,4.69,3.71,8.07,7.47,10.05C25.77,50.87,43.01,44.56,61.25,37.89z" fill="url(#SVGID_1_)"/>
    <path d="M121.22,6.51c-2.76-2.6-6.57-3.26-11.93-0.15c-3.36,1.95-7.24,5.49-12.15,10.58 c-8.17,8.49-74.33,82.43-91.03,101.72c-2.32,2.67-2.36,4.29-1.84,4.81c0.52,0.52,1.94,0.39,4.75-1.95 c19.22-16.04,92.96-81.16,102.27-90.43c4.16-4.14,7.67-7.88,9.18-9.67C125.61,15.3,124.49,9.6,121.22,6.51z M96.85,36.37 c-1.41,1.41-3.11,2.22-4.31,1.02c-1.2-1.2-1.03-3.34,0.38-4.75l17.78-17.78c1.41-1.41,3.55-1.58,4.75-0.38 c1.2,1.2,0.59,2.7-0.82,4.12L96.85,36.37z" fill="#BDBDBD"/>
    <path d="M100.15,18.07c5.55-5.91,9.5-9.56,12.82-11.06c6.17-2.78,9.13,0.42,8.85,0.11 c-2.64-2.85-6.27-4.14-12.09-1c-3.45,1.86-7.26,5.27-12.59,10.82c-8.16,8.51-74.57,82.64-91.03,101.72 c-2.31,2.68-2.49,4.44-1.66,4.88C21.19,104.4,92.08,26.66,100.15,18.07z" opacity="0.75" fill="#B9E4EA"/>
    <linearGradient id="SVGID_2_" gradientUnits="userSpaceOnUse" x1="102.2411" x2="110.8428" y1="24.3892" y2="32.4058">
      <stop offset="0.1934" stop-color="#2F7889"/>
      <stop offset="0.8375" stop-color="#2F7889"/>
    </linearGradient>
    <path d="M117.95,13.2c-2.57-1.58-4.9-0.9-7.36,1.53c0,0,0.19-0.1,0.48-0.19 c1.4-1.15,3.32-1.24,4.44-0.12c1.2,1.2,0.53,2.77-0.88,4.18L96.85,36.37c-1.41,1.41-3.05,2.16-4.25,0.96 c-1.2-1.2-1.03-3.34,0.38-4.75l0.57-0.57c0,0-6.17,4.07-2.18,8.16c2.11,2.16,5.88,0.95,7.38-0.6l18.99-19.51 C119.25,18.52,120.53,14.79,117.95,13.2z" fill="url(#SVGID_2_)"/>
    <linearGradient id="SVGID_3_" gradientUnits="userSpaceOnUse" x1="74.302" x2="74.1161" y1="36.7282" y2="20.3654">
      <stop offset="0.0381" stop-color="#0091EA"/>
      <stop offset="1" stop-color="#01579B"/>
    </linearGradient>
    <path d="M114.96,28.88c-5.15-5.3-13.16-5.3-13.16-5.3l-4.68,4.68c7-0.35,11.15,1.27,14.79,4.8 c4.21,4.07,5.44,10.41,4.8,14.9c-3.5,24.25-36.15,28.3-36.48,28.33C51.35,79.63,35.67,67.8,27.2,56.11c0,0-0.97,6.48,5.24,12.1 c8.05,7.3,19.47,13.62,38.37,13.62c3.4,0,7.01-0.21,10.85-0.65c13.04-1.51,36.59-8.92,39.93-32.06 C122.4,43.52,120.95,35.04,114.96,28.88z" fill="url(#SVGID_3_)"/>
  </g>
</svg>

<svg viewBox="0 0 128 128" xmlns="http://www.w3.org/2000/svg">
  <defs>
    <linearGradient id="SVGID_1_" gradientUnits="userSpaceOnUse" x1="71.3437" x2="87.7654" y1="36.6782" y2="40.597">
      <stop offset="0.0381" stop-color="#0091EA"/>
      <stop offset="1" stop-color="#01579B"/>
    </linearGradient>
    <linearGradient id="SVGID_2_" gradientUnits="userSpaceOnUse" x1="102.2411" x2="110.8428" y1="24.3892" y2="32.4058">
      <stop offset="0.1934" stop-color="#2F7889"/>
      <stop offset="0.8375" stop-color="#2F7889"/>
    </linearGradient>
    <linearGradient id="SVGID_3_" gradientUnits="userSpaceOnUse" x1="74.302" x2="74.1161" y1="36.7282" y2="20.3654">
      <stop offset="0.0381" stop-color="#0091EA"/>
      <stop offset="1" stop-color="#01579B"/>
    </linearGradient>
  </defs>
  <path d="M61.25,37.89 C71.1,34.28 81.29,30.56 89.75,29.03 C90.98,28.81 92.18,28.63 93.33,28.51 C95.39,26.23 98.28,25.34 100.02,23.43 C96.8,23.32 93.3,23.6 89.52,24.28 C80.53,25.9 70.08,29.72 59.98,33.42 C43.81,39.34 28.53,45.24 19.29,41.35 C17.03,40.4 14.38,39.18 12.8,34.65 C9.45,25.1 19.33,12.92 28.39,10.7 C46.3,6.3 49.17,23.68 49.17,23.68 C49.17,23.68 50.36,23.19 49.98,19.74 C49.25,13.13 45.33,4.29 29.36,5.77 C16.96,6.92 4.61,21.88 8.08,35.43 C9.28,40.12 11.79,43.5 15.55,45.48 C25.77,50.87 43.01,44.56 61.25,37.89 Z" fill="url(#SVGID_1_)"/>
  <path d="M121.22,6.51 C118.46,3.91 114.65,3.25 109.29,6.36 C105.93,8.31 102.05,11.85 97.14,16.94 C88.97,25.43 22.81,99.37 6.11,118.66 C3.79,121.33 3.75,122.95 4.27,123.47 C4.79,123.99 6.21,123.86 9.02,121.52 C28.24,105.48 101.98,40.36 111.29,31.09 C115.45,26.95 118.96,23.21 120.47,21.42 C125.61,15.3 124.49,9.6 121.22,6.51 Z M96.85,36.37 C95.44,37.78 93.74,38.59 92.54,37.39 C91.34,36.19 91.51,34.05 92.92,32.64 L110.7,14.86 C112.11,13.45 114.25,13.28 115.45,14.48 C116.65,15.68 116.04,17.18 114.63,18.6 L96.85,36.37 Z" fill="#BDBDBD"/>
  <path d="M100.15,18.07 C105.7,12.16 109.65,8.51 112.97,7.01 C119.14,4.23 122.1,7.43 121.82,7.12 C119.18,4.27 115.55,2.98 109.73,6.12 C106.28,7.98 102.47,11.39 97.14,16.94 C88.98,25.45 22.57,99.58 6.11,118.66 C3.8,121.34 3.62,123.1 4.45,123.54 C21.19,104.4 92.08,26.66 100.15,18.07 Z" fill="#B9E4EA" opacity="0.75"/>
  <path d="M117.95,13.2 C115.38,11.62 113.05,12.3 110.59,14.73 C110.59,14.73 110.78,14.63 111.07,14.54 C112.47,13.39 114.39,13.3 115.51,14.42 C116.71,15.62 116.04,17.19 114.63,18.6 L96.85,36.37 C95.44,37.78 93.8,38.53 92.6,37.33 C91.4,36.13 91.57,33.99 92.98,32.58 L93.55,32.01 C93.55,32.01 87.38,36.08 91.37,40.17 C93.48,42.33 97.25,41.12 98.75,39.57 L117.74,20.06 C119.25,18.52 120.53,14.79 117.95,13.2 Z" fill="url(#SVGID_2_)"/>
  <path d="M114.96,28.88 C109.81,23.58 101.8,23.58 101.8,23.58 L97.12,28.26 C104.12,27.91 108.27,29.53 111.91,33.06 C116.12,37.13 117.35,43.47 116.71,47.96 C113.21,72.21 80.56,76.26 80.23,76.29 C51.35,79.63 35.67,67.8 27.2,56.11 C27.2,56.11 26.23,62.59 32.44,68.21 C40.49,75.51 51.91,81.83 70.81,81.83 C74.21,81.83 77.82,81.62 81.66,81.18 C94.7,79.67 118.25,72.26 121.59,49.12 C122.4,43.52 120.95,35.04 114.96,28.88 Z" fill="url(#SVGID_3_)"/>
</svg>
